app/images/icons/submitted.svg

<svg fill="none" height="6" viewBox="0 0 7 6" width="7" xmlns="http://www.w3.org/2000/svg"><path clip-rule="evenodd" d="m5.24834.0498428c.44182 0 .8.3581732.8.8000012v3.999996c0 .44183-.35818.8-.8.8-.44183 0-.8-.35817-.8-.8v-2.16706l-2.88276 2.88275c-.31242.31242-.818948.31242-1.131368 0-.312419-.31242-.312419-.81895 0-1.13137l2.784318-2.78432h-1.97019c-.441833 0-.800005-.35817-.800005-.799996 0-.441828.358172-.8000012.800005-.8000012z" fill="#f9fbff" fill-rule="evenodd"/></svg>

<svg width="7" height="6" viewBox="0 0 7 6" fill="none" xmlns="http://www.w3.org/2000/svg">
<path fill-rule="evenodd" clip-rule="evenodd" d="M5.24834 0.0498428C5.69016 0.0498428 6.04834 0.408016 6.04834 0.849844L6.04834 4.84984C6.04834 5.29167 5.69016 5.64984 5.24834 5.64984C4.80651 5.64984 4.44834 5.29167 4.44834 4.84984V2.68278L1.56558 5.56553C1.25316 5.87795 0.746632 5.87795 0.434212 5.56553C0.121793 5.25311 0.121793 4.74658 0.434212 4.43416L3.21853 1.64984L1.24834 1.64984C0.806507 1.64984 0.448335 1.29167 0.448335 0.849844C0.448335 0.408016 0.806507 0.0498428 1.24834 0.0498428L5.24834 0.0498428Z" fill="#F9FBFF"/>
</svg>
